X:1
T: Marc Deguire
C: R-34
M: C|
Z:
R: reel
K: A
"A"EF2E A2B2| c2e c2 BA2| "D"FA2F B2FA-| AFB2 A2F2|
"A"EF2E A2B2| c2e c2 BA2| "E"Bc2B ecB2| "A"A8 :|
|:\
"D"Ae2A f2Aa-| aAf2 "A"e2c2| "E"Bc2B e2Bc-| cBe2 "A"c2B2|
"D"Ae2A f2Aa-| aAf2 "A"e2c2| "E"Bc2B ecB2| "A"A8 :|
%
